!!!!SEGMENT: pl-kk--kk-i-277--002-002_anonim--rorate-caeli-kyrie.krn
!!!cenid: 16xx:1084
!!!COM: Anonim
!!!COM-rismID: pe30004985
!!!CDT:
!!!CNT:
!!!OPR: Rorate caeli
!!!OTL: Kyrie
!!!OMV: 002
!!!PDT:
!!!AGN: Sacred
!!!SMS-siglum: PL-Kk
!!!SMS-shelfmark: Kk.I.277
!!!SMS-shelfwork: 002-002 M
!!!SMS-variant:
!!!SMS-altvar:
!!!NIFC-rismSourceID: 1001147171
!!!NIFC-rismChildID: 1001147188
!!!NIFC-islandoraID: pl-kk:4889
!!!URL-pdf-islandora: https://repozytorium.nifc.pl/islandora/object/pl-kk%3A4889/datastream/PDF/view
!!!URL-scan: https://polish.musicsources.pl/pl/lokalizacje/galeria/rekopisy/5895 @EN{Scan on Polish Music Sources Website} @PL{Skany w portalu Dziedzictwo Muzyki Polskiej w otwartym dostępie}
!!!IIIF:
!!!ONB-nifc: UWAGA: Introitus Secundi officii od str. 5. części: 1. Rorate caeli (Rorate caeli + Benedixisti + Gloria patri), 2. Kyrie, 3. Et in terra, 4. Tollite portas, 5. Alleluia, 6. Mittit ad virginem, 7. Ave Maria, 8. Sanctus, 9. Agnus Dei, 10. Ecce virgo
!!!AIN: 1 tenor
!!!key:
**kern	**text
*Itenor	*
*I"[Tenore]	*
*I'[T]	*
*clefC4	*
*k[b-]	*
*F:	*
*M2/1	*
*met(C)	*
=1-	=1-
1F	Ky-
1D	-ri-
=2-	=2-
*lig	*
1F	-e
1G	.
*Xlig	*
=3-	=3-
1A	e-
*lig	*
1B-	.
=4-	=4-
1A	.
*Xlig	*
*lig	*
1G	.
=5-	=5-
1F	.
*Xlig	*
1D	.
=6-	=6-
1E	-ley-
0Fl;;	-ſon
=7||	=7||
*lig	*
1F	Chri-
1c	.
*Xlig	*
=8-	=8-
*lig	*
1c	-ſte
1B-	.
*Xlig	*
=9-	=9-
1A	.
*lig	*
1B-	e-
=10-	=10-
1c	.
*Xlig	*
1d	.
=11-	=11-
*lig	*
1c	.
1A	.
*Xlig	*
=12-	=12-
*lig	*
1B-	.
*custos:G	*
1A	.
*Xlig	*
!LO:LB:g=original	!
=13-	=13-
*lig	*
1G	.
1F	.
*Xlig	*
=14-	=14-
1D	.
1E	-ley-
=15-	=15-
0Fl;;	-ſon
!LO:PB:g=original	!
=16||	=16||
*M2/1	*
*met(C)	*
*lig	*
1G	Ky-
1c	.
*Xlig	*
=17-	=17-
1c	-ri-
*lig	*
1d	-e
=18-	=18-
1c	.
*Xlig	*
*lig	*
1f	e-
=19-	=19-
1e	.
*Xlig	*
*lig	*
1d	.
=20-	=20-
1c	.
*Xlig	*
1B-	.
=21-	=21-
*lig	*
1c	.
1d	.
*Xlig	*
=22-	=22-
*lig	*
1c	.
1A	.
*Xlig	*
=23-	=23-
*lig	*
1B-	.
1A	.
*Xlig	*
=24-	=24-
*lig	*
1G	.
1F	.
*Xlig	*
=25-	=25-
1D	.
1E	-ley-
=26-	=26-
0F;;	-ſon
=27||	=27||
*lig	*
1F	Ky-
1c	ri-
*Xlig	*
=28-	=28-
1c	-e
*lig	*
1d	e-
=29-	=29-
1c	.
*Xlig	*
!LO:LB:g=original	!
*lig	*
1f	.
=30-	=30-
1e	.
*Xlig	*
*lig	*
1d	.
=31-	=31-
1c	.
*Xlig	*
1B-	.
=32-	=32-
*lig	*
1c	.
1d	.
*Xlig	*
=33-	=33-
*lig	*
1B-	.
1A	.
*Xlig	*
=34-	=34-
0c	.
=35-	=35-
1B-	.
*lig	*
1c	.
=36-	=36-
1d	.
*Xlig	*
*lig	*
1c	.
=37-	=37-
1A	.
*Xlig	*
1B-	.
=38-	=38-
1A	.
*lig	*
1G	.
=39-	=39-
1F	.
*Xlig	*
1D	.
=40-	=40-
1E	-ley-
1Fl;;	-ſon
==	==
*-	*-
!!!RDF**kern: < = below
!!!RDF**kern: l = terminal long
!!!ENC: Marta Lawrence
!!!END: 2021-03-28
!!!ENC: Tomasz Grochalski
!!!END: 2021-03-14
!!!YEC: Copyright 2022 Narodowy Instytut Fryderyka Chopina (https://polishscores.org)
!!!YEM: License CC-BY-4.0 (https://creativecommons.org/licenses/by/4.0)
